X:1
T:Title
%%score { ( 1 3 5 ) | ( 2 4 ) }
L:1/8
M:6/8
K:Ab
V:1 treble nm="Grand Piano"
V:3 treble 
V:5 treble 
V:2 bass 
V:4 bass 
V:1
 z3 z2[Q:1/4=78] E | [CA][CA][CA] [Ec][DB][CA] | GAB [CA]2 e | eee ecA | AB[=Dc] [_DB]2 [DE] | %5
 [CA][CA][CA] [Ec][DB]A | ABc [Ad]2 [A=d] | [Ae][Af][Ae] [EAc]>[DGB][CEA] | %8
[M:5/8] [DGB][EGc][DGB] [CA]2 |[M:1/8] [CA] | %10
[M:29/32] [Ac]/4-[Ac]/4-[Ac]/-<[Ac]/ z/ [CAc]/-<[CAc]/ z/4 z/4 z/4 z/4 z/4 z/4 z/4 z/4 z/4 z/4 z/4 z/4 z/4 z/4 z/4 z/ | %11
[M:3/4] (7:8:7[A,FA]3/4[A,EG]-[A,EG]/8[A,DF]3/4[A,CE]3/8-[A,CE]3/2e3/4 | e3- e/4 z/4 z/ z2 | %13
[M:5/8] e- e2- e/4 z/4 z/ z |[M:1/8] A |[M:7/8] z2 [Ac]3/2-[Ac]/4 z/4 z z2 | %16
[M:3/4] (7:8:7[FA]3/4[FA]-[FA]/8[FA]3/4[Af]3/8-[Af]3/2[Af]3/4 | %17
[M:4/4] e3- e/4 z/4 z/ e3- e/4 z/4 z/ |[M:5/8] z5 |] %19
V:2
 z3 z2 E, | [A,,A,][A,,A,][A,,A,] [A,,A,][A,,A,][A,,A,] | %2
 [E,B,][E,C][E,G,D] [A,,A,]2[K:treble] [A,CA] | [A,CA][A,CA][A,CA] [A,CA][A,EA][K:bass][A,C] | %4
 [F,CF][F,CF][B,,A,] [E,G,]2 [E,G,] | [A,,A,][A,,A,][A,,A,] [A,,A,][A,,A,][A,C] | %6
 [_G,CE][G,CE][G,CE] [F,A,]2 [=E,_C] | [E,C][E,D][E,C] E,>E,E, |[M:5/8] E,E,E, A,2 |[M:1/8] A, | %10
[M:29/32] z/4 z/4 z/4 z/4 z/4 z/4 z/ F,/-<F,/ z/4 z/4 z/4 z/4 z/4 z/4 z/4 z/4 z/4 z/4 z/4 z/4 z/4 z/4 z/4 z/ | %11
[M:3/4] z2 D,-D,/4 z/4 z/ z2 | E4- E3/4 z/4 z |[M:5/8] E-E- E2- E3/4 z/4 |[M:1/8] C | %15
[M:7/8] z2 C2 z z2 |[M:3/4] (7:8:7[D,A,]3/4[D,A,]-[D,A,]/8[D,A,]3/4[D,D]3/8-[D,D]3/2[D,D]3/4 | %17
[M:4/4] C3- C/4 z/4 z/ z2 z [E,B,]- |[M:5/8] [E,B,]3/4 z/4 z z z2 |] %19
V:3
 x6 | x6 | x6 | x6 | x6 | x6 | x6 | x6 |[M:5/8] x5 |[M:1/8] x | %10
[M:29/32] (5:4:17C3/2-C/4-C/16[CAc]3/4-[CAc]/8-[CAc]/32 z3/4 z/8 z/32 [CGB]2- [CGB]/-[CGB]3/16-[CGB]/32[CGB]3/4-[CGB]/8-[CGB]/32[CGB]3/2- x/5 (5:4:1[CGB]/16 | %11
[M:3/4] x6 | z2 z c- c3/4 z/4 e |[M:5/8] z z2 c3/2-c/4 z/4 |[M:1/8] x | %15
[M:7/8] [Ac]>[Ac] z z/ [GB]3/2 [GB]<[GB] |[M:3/4] x6 |[M:4/4] (3:2:2A4 [Ae]2 G4 | %18
[M:5/8] [CA]-[CA]- [CA]3 |] %19
V:4
 x6 | x6 | x5[K:treble] x | x5[K:bass] x | x6 | x6 | x6 | x6 |[M:5/8] x5 |[M:1/8] x | %10
[M:29/32] (5:4:17F,3/2-F,/4-F,/16F,3/4-F,/8-F,/32 z3/4 z/8 z/32 C,2- C,/-C,3/16-C,/32C,3/4-C,/8-C,/32C,3/2- x/5 (5:4:1C,/16 | %11
[M:3/4] (3:2:2D,3/2D,3/2 z A,,2- A,,/4 z/4 z/ | [A,C]4- [A,C]-[A,C]/4 z/4 z/ | %13
[M:5/8] [A,C]-[A,C]- [A,C]3 |[M:1/8] [A,E]- | %15
[M:7/8] [F,-A,C-E]/>[F,C]/-[F,C]/[F,C]<F,-[C,-F,C-]/4[C,C]/4-[C,C] [C,C]<[C,C] |[M:3/4] x6 | %17
[M:4/4] (3:2:2E,4 [E,C]2 [E,B,]4 |[M:5/8] [A,,A,]-[A,,A,]- [A,,A,]3 |] %19
V:5
 x6 | x6 | x6 | x6 | x6 | x6 | x6 | x6 |[M:5/8] x5 |[M:1/8] x |[M:29/32] x29/4 |[M:3/4] x6 | x6 | %13
[M:5/8] x5 |[M:1/8] x |[M:7/8] x7 |[M:3/4] x6 |[M:4/4] z4 z2 z [DG]- |[M:5/8] [DG]3/4 z/4 z z z2 |] %19

